img/icons/arr-right-bread.svg

<svg width="14" height="12" viewBox="0 0 14 12" fill="none" xmlns="http://www.w3.org/2000/svg">
<path d="M10.4035 4.95556L0.520508 4.94693L0.522375 7.0544L10.4055 7.06315L7.07953 10.3891L8.61114 11.9208L13.4447 7.08717C13.7233 6.7946 13.8659 6.41306 13.8726 6.02914C13.8797 5.62522 13.7364 5.21867 13.4428 4.91034L8.61399 0.081543L7.07176 1.62378L10.4035 4.95556Z" fill="white"/>
</svg>

<svg width="14" height="12" fill="none" xmlns="http://www.w3.org/2000/svg"><path d="m10.403 4.956-9.882-.01.001 2.108 9.883.01-3.325 3.325 1.531 1.532 4.834-4.834a1.57 1.57 0 0 0 .428-1.058 1.579 1.579 0 0 0-.43-1.119L8.614.082 7.072 1.624l3.331 3.332Z" fill="#fff"/></svg>
